X: 5102
T: Bridge Of Bamore, The
R: reel
M: 4/4
K: Amajor
|:A,2 e>f edcA|BF F/F/F GEEF|A2 ef edcA|1 BABc A/A/A A2:|2 BABc A/A/A Ag||
aece aecA|BF F/F/F GEEg|aece aecA|BABc A/A/A Ag|
aece aecA|BF F/F/F GEEF|A,2 ef edcA|BABc A/A/A A2||

